X:1
T: Heather Jock
P:Adapted by Bruce Shawyer
R:Strathspey
Q: 128
K:A
M:4/4
L:1/16
|:ec3 a4 ec3 a4|e3c a3e f3e c3A|dB3 b4 dB3 b4|d3f b3a ((3g2f2e2) ((3d2c2B2) |
ec3 a4 ec3 a4|e3c a3e f3e c3A|d3e f3g a3e c3A|fedc dcBA GB3 B2d2|
cA3 E3A C3E A3B|e3A e3c a3e c3A|dB3 F3B D3F B3c|d3B b3a ((3g2f2e2) ((3d2c2B2) |
cA3 E3A C3E A3B|e3A e3c a3e c3A|d3e f3g a3e c3A|fedc dcBA EA3 A4:|
